media/img/telegram_logo.svg

<svg fill="none" height="28" viewBox="0 0 27 28" width="27" xmlns="http://www.w3.org/2000/svg"><path clip-rule="evenodd" d="m27.0007 13.9354c0 7.3805-5.9831 13.3636-13.3636 13.3636-7.38056 0-13.363662-5.9831-13.363662-13.3636 0-7.38052 5.983102-13.363623 13.363662-13.363623 7.3805 0 13.3636 5.983103 13.3636 13.363623zm-12.8851-3.4979c-1.2998.5406-3.8976 1.6596-7.79334 3.3569-.63261.2516-.964.4977-.99417.7383-.05099.4067.45831.5669 1.15184.7849.09433.0297.19208.0604.29229.093.68232.2218 1.60017.4813 2.07732.4916.43282.0093.9159-.1691 1.44926-.5353 3.6399-2.4571 5.5189-3.699 5.6368-3.7258.0833-.0189.1986-.0426.2767.0268.0782.0695.0705.201.0622.2363-.0504.2151-2.0496 2.0737-3.0842 3.0355-.3225.2999-.5513.5126-.5981.5611-.1047.1089-.2115.2118-.3141.3107-.6339.6111-1.1093 1.0693.0263 1.8177.5457.3596.9824.657 1.418.9536.4758.324.9503.6472 1.5643 1.0497.1564.1025.3058.209.4513.3127.5537.3948 1.0512.7494 1.6657.6928.3571-.0328.726-.3686.9133-1.37.4427-2.3668 1.3129-7.4947 1.514-9.60781.0177-.18513-.0045-.42207-.0223-.52608s-.055-.2522-.1902-.3619c-.1601-.12992-.4073-.15732-.5178-.15537-.5027.00885-1.2738.277-4.9851 1.82066z" fill="#fff" fill-opacity=".7" fill-rule="evenodd"/></svg>

<svg width="27" height="28" viewBox="0 0 27 28" fill="none" xmlns="http://www.w3.org/2000/svg">
<path fill-rule="evenodd" clip-rule="evenodd" d="M27.0007 13.9354C27.0007 21.3159 21.0176 27.299 13.6371 27.299C6.25654 27.299 0.273438 21.3159 0.273438 13.9354C0.273438 6.55488 6.25654 0.571777 13.6371 0.571777C21.0176 0.571777 27.0007 6.55488 27.0007 13.9354ZM14.1156 10.4375C12.8158 10.9781 10.218 12.0971 6.32226 13.7944C5.68965 14.046 5.35826 14.2921 5.32809 14.5327C5.2771 14.9394 5.7864 15.0996 6.47993 15.3176C6.57426 15.3473 6.67201 15.378 6.77222 15.4106C7.45454 15.6324 8.37239 15.8919 8.84954 15.9022C9.28236 15.9115 9.76544 15.7331 10.2988 15.3669C13.9387 12.9098 15.8177 11.6679 15.9356 11.6411C16.0189 11.6222 16.1342 11.5985 16.2123 11.6679C16.2905 11.7374 16.2828 11.8689 16.2745 11.9042C16.2241 12.1193 14.2249 13.9779 13.1903 14.9397C12.8678 15.2396 12.639 15.4523 12.5922 15.5008C12.4875 15.6097 12.3807 15.7126 12.2781 15.8115C11.6442 16.4226 11.1688 16.8808 12.3044 17.6292C12.8501 17.9888 13.2868 18.2862 13.7224 18.5828C14.1982 18.9068 14.6727 19.23 15.2867 19.6325C15.4431 19.735 15.5925 19.8415 15.738 19.9452C16.2917 20.34 16.7892 20.6946 17.4037 20.638C17.7608 20.6052 18.1297 20.2694 18.317 19.268C18.7597 16.9012 19.6299 11.7733 19.831 9.66019C19.8487 9.47506 19.8265 9.23812 19.8087 9.13411C19.7909 9.0301 19.7537 8.88191 19.6185 8.77221C19.4584 8.64229 19.2112 8.61489 19.1007 8.61684C18.598 8.62569 17.8269 8.89384 14.1156 10.4375Z" fill="white" fill-opacity="0.7"/>
</svg>
